X: 24584
T: Lynch's
R: barndance
M: 4/4
K: Dmajor
|:A/|F2 F2 A2 A2|G>FG>A B2 B2|A>dc>B A>GF>E|D>E (3FDF (3A,DF A2|
F2 F2 A2 A2|G>FG>A B2 B2|A>dc>B A>GF>E|D2 (3DFA d2- d3/2:|
e/|f2 f2 f2 e>d|c>Bc>d e2- e>f|g2 g2 g2 (3ABc|d>cd>e f2- f>e|
f2 f2 f2 e>d|c>Bc>d e2- e>f|g2 g2 A2 B>c|(3efe d2 d2- d>e|
f2 f2 f2 e>d|c>Bc>d e2- e>f|g2 g2 g2 (3ABc|d>ef>g a2- a>g|
f2 f2 f2 e>d|c>Bc>d e2 e>f|g2 g2 A2 B>c|(3efe d2 d2- d3/2||

